X: 1
T: la Marseillaise
T: Rouget de Lisle
M: C
L: 1/8
Z: 2011 John Chambers <jc:trillian.mit.edu>
B: "Chants de France" The Thrift Press, Ithaca, New York, 1934
N: No editor or arranger named
R: Alla marcia
K: G
D/ D>D |\
"G"[G2B,2] [G2B,2] "D7"[A2D2] [A2D2] | "G"[d3D3] [BD] [GB,]>[GD] [BD]>[GD] |
w: Al-lons, en-fants de la Pa-tri-*e, le jour de
"Am"[E2C2] [c4E4] "D7"[AE]>[FD] | "G"[G4D4] z2 [GD]>[AF] |\
"G"[B3G3] [BG] [B2G2] "D7"[cA]>[BG] | "G"[B2G2] "D"[A2F2] z3 [AF]>[BG] |
w: gloire est ar-re-v\'e. Con-tre nous de la ty-ran-nie-e l'\'e-ten-
"D7"[c3A3] [cA] [c2A2] [dF]>[cF] | "G"[B4G4] z2 [dD]>[dD] |\
"G"[d2D2] [BB,]>[GG,] [d2D2] [BB,]>[GG,] |
w: dard sang-lant est le-v\'e, l'\'e-ten-dard* sang-lant est le-
D4 z>D D>D | "D"[A4D4] [c3F3] [AF]>[FD] |\
"G"[G2D2] [G2D2] "G7"[=F4D4] | "C"[E2C2] "G"[GD]>[GD] [G2D2] "A7"[F^C]>[GC] |
w: v\'e. En-ten-dez vous dans les cam-pa-gnes mu-gir ces f\'e-ro-ces sol-
"D"[A4D4] z2 z[AD] | "Gm"[_B3D3] [BG] [AF][BG] [cA]>[BG] |\
"D"[A6D6] [_BD]>[AC] | [G3_B,3] [GB,] [_B2D2] [AF]>[GD] |
w: dats? Ils vienn-ent jus-que dans nos bras, \'e-gorg-er nos fils, nos com-
"Gm"[G2D2] "D"[F2D2] z2 z>[dD] | "D"[d4-D4] [dD]>[dD] "G"[BB,]>[GG,] |\
"D"[A6A,6] z>[dD] | "D"[d4-F4-] [dF]>[dF] "G"[BF]>[GD] |
w: pa-gnes! Aux ar-*mes, ci-toy-ens! For-mez* vos ba-tail-
"D"[A6F6] D2 | "G"[G4D4] z2 "D"[A2F2] | "G"[B4-G4-] "G7"[B2G2] z2 |\
"C"[c4G4] "G"[d2G2] "A7"[e2G2] | "D"[A6F6] "D7"[eE]>[dF] |\
"G"[d6-G6-] [dG]>[BG] "D7"[cF]>[AF] | "G"G4 z3/2 |]
w: lons!  Mar-chons, mar-chons,* qu'un sang im-pur a-*breu-*ve nos sil-lons.
